X:1
T:Title
%%score 1 ( 2 3 )
L:1/8
Q:1/4=110
M:4/4
K:C
V:1 treble nm="Grand Piano, Soprano"
V:2 bass nm="Choir Pad, The Moment It Is Done"
V:3 bass 
V:1
 CE [EG]2 [EG]2 [FA]2 | [FA]2 [EG]2 [CE]2 [EG]2 | [Gc]2 [GB]2 [FA]2 [EG]2 | [DF]2 [CE]6 | %4
 CE [EG]2 [EG]2 [FA]2 | [FA]2 [EG]2 [CE]2 [EG]2 | [Gc]2 [Fc]2 [FB]2 [FA]2 | [FB]2 [Ec]6 | %8
 CE [EG]2 [EG]2 [FA]2 | [FA]2 [EG]6 | [CE][EG] [Ec]2 [Ec]2 [Fd]2 | [Fd]2 [Ec]6 | %12
 [EG]2 [EG]2 [DF]2 [DF]2 | [FA]2 [FA]2 [EG]2 [EG]2 | [Ec]2 [Ec]2 [FB]2 [FB]2 | %15
 [Fd]2 [Fd]2 [Ec]2 [Ec]2 | [EG]2 [FA]2 [Fc]2 [Ec]2 | [DB]2 [Ec]6- | [Ec]2 z2 z4 |] %19
V:2
 E,G, [C,C]2 [C,C]2 [C,C]2 | [C,C]2 [C,C]2 [C,G,]2 [C,C]2 | [E,C]2 [F,C]2 [F,C]2 [G,C]2 | %3
w: By~Robert~Harkness * * * *|||
 G,2 [C,C]6 | E,G, [C,C]2 [C,C]2 [C,C]2 | [C,C]2 [C,C]2 [C,G,]2 [C,C]2 | %6
w: |||
 [E,C]2 [G,D]2 [G,D]2 [G,C]2 | [G,D]2 [C,C]6 | E,G, [C,C]2 [C,C]2 [C,C]2 | [C,C]2 [C,C]6 | %10
w: ||||
 [C,G,][C,C] G,2 G,2 [G,B,]2 | G,2 [C,G,]6 | [C,C]2 [G,C]2 [G,B,]2 [G,B,]2 | %13
w: |||
 G,2 [C,C]2 [C,C]2 [C,C]2 | [C,G,]2 G,2 G,2 G,2 | [G,B,]2 [C,G,]2 [C,G,]2 [C,G,]2 | %16
w: |||
 [C,C]2 [F,C]2 [F,A,]2 G,2 | [G,,G,]2 [C,G,]6- | [C,G,]2 z2 z4 |] %19
w: |||
V:3
 C,2 z2 z4 | x8 | x8 | x8 | C,2 z2 z4 | x8 | x8 | x8 | C,2 z2 z4 | x8 | x8 | x8 | x8 | x8 | x8 | %15
 x8 | x8 | x8 | x8 |] %19

